Sources/FrostedUI/Resources/Icons.xcassets/camera16.imageset/camera-16.svg

<svg width="16" height="16" viewBox="0 0 16 16" fill="none" xmlns="http://www.w3.org/2000/svg" data-fui-icon="true">
  <path
    d="M9.59375 0.75C10.7337 0.750153 11.7848 1.36668 12.3418 2.36133L12.585 2.79492C12.7421 3.0756 13.0387 3.24984 13.3604 3.25C14.6799 3.25 15.75 4.32013 15.75 5.63965V12.0996C15.75 13.8393 14.3393 15.25 12.5996 15.25H3.40039C1.66069 15.25 0.25 13.8393 0.25 12.0996V5.63965C0.25 4.32011 1.32011 3.25 2.63965 3.25C2.96136 3.24985 3.25784 3.07564 3.41504 2.79492L3.6582 2.36133C4.2152 1.36665 5.26626 0.75017 6.40625 0.75H9.59375ZM6.40625 2.25C5.8092 2.25017 5.25852 2.57279 4.9668 3.09375L4.72363 3.52832C4.30113 4.2826 3.5042 4.74985 2.63965 4.75C2.14854 4.75 1.75 5.14854 1.75 5.63965V12.0996C1.75 13.0109 2.48912 13.75 3.40039 13.75H12.5996C13.5109 13.75 14.25 13.0109 14.25 12.0996V5.63965C14.25 5.14856 13.8514 4.75 13.3604 4.75C12.4958 4.74984 11.6989 4.28261 11.2764 3.52832L11.0332 3.09375C10.7415 2.5728 10.1908 2.25015 9.59375 2.25H6.40625ZM8 5C9.933 5 11.5 6.567 11.5 8.5C11.5 10.433 9.933 12 8 12C6.067 12 4.5 10.433 4.5 8.5C4.5 6.567 6.067 5 8 5ZM8 6.5C6.89543 6.5 6 7.39543 6 8.5C6 9.60457 6.89543 10.5 8 10.5C9.10457 10.5 10 9.60457 10 8.5C10 7.39543 9.10457 6.5 8 6.5Z"
    fill="currentColor"
  />
</svg>

<svg xmlns="http://www.w3.org/2000/svg" width="16" height="16" fill="none" data-fui-icon="true" viewBox="0 0 16 16"><path fill="currentColor" d="M9.594.75a3.15 3.15 0 0 1 2.748 1.611l.243.434a.89.89 0 0 0 .775.455 2.39 2.39 0 0 1 2.39 2.39v6.46a3.15 3.15 0 0 1-3.15 3.15H3.4A3.15 3.15 0 0 1 .25 12.1V5.64a2.39 2.39 0 0 1 2.39-2.39.89.89 0 0 0 .775-.455l.243-.434A3.15 3.15 0 0 1 6.406.75zm-3.188 1.5a1.65 1.65 0 0 0-1.44.844l-.242.434A2.39 2.39 0 0 1 2.64 4.75a.89.89 0 0 0-.89.89v6.46c0 .91.74 1.65 1.65 1.65h9.2c.91 0 1.65-.74 1.65-1.65V5.64a.89.89 0 0 0-.89-.89 2.39 2.39 0 0 1-2.084-1.222l-.243-.434a1.65 1.65 0 0 0-1.44-.844zM8 5a3.5 3.5 0 1 1 0 7 3.5 3.5 0 0 1 0-7m0 1.5a2 2 0 1 0 0 4 2 2 0 0 0 0-4"/></svg>
